X: 54
T:Caledonian 
R:
M:3/4
L:1/4
K:C
|:C>EG|c2B|AFA|G2A/2B/2|c>dc|cGE|
FA,C|B,DG,|C>EG|c2B|AFA|G2F/2E/2|[1 F>A,C|
B,A,B,|C3|C2 G,:|[2 F>Ac|BAB|c3|c2||
e/2f/2|g>ec|c2B|AfA|G2A/2B/2|
c>Bc|egf|edc|d2e/2f/2|g>ec|c2B|
AfA|G2e/2f/2|gec|Bdf|ecB|c2e/2f/2|
g>ec|c2B|AfA|G2E/2F/2|Gce|gfe|
dBG|FED|C>EG|c2B|AFA|G2F/2E/2|
F>A,C|B,A,B,|C3|C3|]
